packages/core/src/svgs/tokens/branded/SBD.svg

<svg width="24" height="24" viewBox="0 0 24 24" fill="none" xmlns="http://www.w3.org/2000/svg">
<path d="M4.89083 4.24883C4.02829 4.97388 3.1345 5.87392 2.76573 6.96773C2.3532 8.2553 2.94074 9.56788 3.49702 10.718C4.05954 11.8867 4.66583 13.0368 5.1971 14.2431C5.61586 15.1931 6.19716 16.3057 6.05964 17.3744C5.94714 18.1308 5.69713 18.8559 5.55961 19.6121C5.44711 20.1184 5.92213 19.6121 6.08464 19.4746C7.06595 18.6371 8.12226 17.6807 8.50977 16.3932C8.67304 15.7807 8.62457 15.131 8.37226 14.5494C8.15349 13.9618 7.89724 13.3993 7.64722 12.8118C7.11595 11.6368 6.55967 10.4616 6.00339 9.28655C5.77838 8.86783 5.55961 8.41781 5.35961 7.97403C5.1644 7.49222 5.05238 6.98075 5.02835 6.46146C5.00333 6.03643 5.00333 5.6489 5.05334 5.23014C5.0846 4.91763 5.16584 4.6426 5.1971 4.3301C5.22209 4.16758 5.0846 4.11133 4.88459 4.24883H4.89083ZM17.654 4.24883C16.7914 4.98012 15.8977 5.87392 15.5351 6.96773C15.1164 8.2553 15.7038 9.56788 16.2602 10.718C16.8227 11.893 17.429 13.0368 17.9603 14.2431C18.379 15.1931 18.9603 16.312 18.8228 17.3744C18.7165 18.1308 18.4602 18.862 18.3227 19.6184C18.2103 20.1184 18.6853 19.6184 18.854 19.4746C19.8291 18.6371 20.8854 17.687 21.2792 16.3995C21.442 15.7842 21.3912 15.132 21.1354 14.5494C20.9166 13.9618 20.6667 13.4055 20.4104 12.8118C19.8745 11.6311 19.3265 10.4561 18.7665 9.28655C18.5477 8.86783 18.3227 8.41781 18.129 7.97403C17.9323 7.49241 17.8181 6.98104 17.7916 6.46146C17.7665 6.04268 17.7665 5.6489 17.8228 5.23014C17.8477 4.91763 17.9289 4.6426 17.9603 4.3301C17.9915 4.16758 17.8477 4.10508 17.6478 4.24883H17.654Z" fill="#1C509B"/>
<path d="M11.1475 2.12374C10.21 2.93628 9.1849 3.91134 8.6224 5.0614C8.23509 5.83138 8.14604 6.71736 8.37239 7.54902C8.65972 8.57071 9.01256 9.57285 9.42874 10.5491C10.2037 12.4243 11.2289 14.1805 11.9788 16.087C12.2476 16.7558 12.5414 17.512 12.6038 18.2746C12.6539 19.1934 12.3539 20.1746 12.1163 21.0373C12.0601 21.2872 11.9038 21.6247 11.9289 21.8809C11.9538 22.0748 12.0601 21.9935 12.1726 21.906C12.6351 21.5309 13.0726 21.1372 13.4852 20.7059C14.5915 19.6121 15.8603 18.1559 15.7477 16.4557C15.6916 15.7495 15.3728 15.0807 15.104 14.4369C14.804 13.6869 14.4789 12.9555 14.1664 12.2242C13.5727 10.8493 12.9539 9.5116 12.3038 8.16155C12.0914 7.69277 11.8226 7.24275 11.6601 6.76774C11.4291 6.12965 11.3024 5.45851 11.285 4.78013C11.2601 4.2801 11.285 3.74883 11.3413 3.24254C11.3662 2.90504 11.4726 2.59877 11.4726 2.26125C11.5538 1.95499 11.3913 1.92998 11.1475 2.12374Z" fill="#4BA2F2"/>
</svg>

<svg xmlns="http://www.w3.org/2000/svg" width="24" height="24" fill="none" viewBox="0 0 24 24">
    <path fill="#1C509B" d="M4.89 4.249c-.862.725-1.755 1.625-2.124 2.719-.413 1.287.175 2.6.731 3.75.563 1.169 1.169 2.319 1.7 3.525.419.95 1 2.063.863 3.131-.113.757-.363 1.482-.5 2.238-.113.506.362 0 .525-.137.981-.838 2.037-1.794 2.425-3.082a2.8 2.8 0 0 0-.138-1.844c-.219-.587-.475-1.15-.725-1.737a223 223 0 0 0-1.644-3.525 21 21 0 0 1-.643-1.313 4.6 4.6 0 0 1-.332-1.513 6.7 6.7 0 0 1 .025-1.23c.032-.313.113-.588.144-.9.025-.163-.112-.22-.312-.082zm12.764 0c-.863.731-1.756 1.625-2.119 2.719-.419 1.287.169 2.6.725 3.75.563 1.175 1.169 2.319 1.7 3.525.419.95 1 2.069.863 3.131-.107.757-.363 1.488-.5 2.244-.113.5.362 0 .531-.143.975-.838 2.031-1.788 2.425-3.076a2.8 2.8 0 0 0-.144-1.85c-.218-.587-.468-1.143-.725-1.737a190 190 0 0 0-1.643-3.525 21 21 0 0 1-.638-1.313 4.6 4.6 0 0 1-.337-1.513 6.2 6.2 0 0 1 .03-1.23c.026-.313.107-.588.138-.9.031-.163-.112-.226-.312-.082z"/>
    <path fill="#4BA2F2" d="M11.148 2.124c-.938.812-1.963 1.787-2.526 2.937a3.5 3.5 0 0 0-.25 2.488q.432 1.535 1.057 3c.775 1.875 1.8 3.632 2.55 5.538.269.669.562 1.425.625 2.188.05.918-.25 1.9-.488 2.762-.056.25-.212.588-.187.844.025.194.131.113.244.025.462-.375.9-.769 1.312-1.2 1.107-1.094 2.375-2.55 2.263-4.25-.056-.707-.375-1.375-.644-2.02-.3-.75-.625-1.48-.938-2.212a108 108 0 0 0-1.862-4.062c-.213-.47-.481-.92-.644-1.394a6.3 6.3 0 0 1-.375-1.988c-.025-.5 0-1.031.056-1.537.025-.338.132-.644.132-.982.08-.306-.082-.331-.325-.137"/>
</svg>
